icons/gluten_fill.svg

<svg width="48" height="48" viewBox="0 0 48 48" fill="none" xmlns="http://www.w3.org/2000/svg">
<path d="M25 17.0002V18.9672C25.8758 17.648 27.2649 16.686 28.9161 16.3828L29 16.3673V7H31V17H30.9933C30.8633 19.7726 28.8383 22.1113 26.0839 22.6172L25 22.8163V26.4625C25.7795 25.2878 26.9683 24.3927 28.3995 23.9966L32 23V24.2208C32 26.9181 30.2001 29.2839 27.6005 30.0034L25 30.7232V34.4625C25.7795 33.2878 26.9683 32.3927 28.3995 31.9966L32 31V32.2208C32 34.9181 30.2001 37.2839 27.6005 38.0034L25 38.7232V44H23V38.7232L20.3995 38.0034C17.7999 37.2839 16 34.9181 16 32.2208V31L19.6005 31.9966C21.0317 32.3927 22.2205 33.2878 23 34.4625V30.7232L20.3995 30.0034C17.7999 29.2839 16 26.9181 16 24.2208V23L19.6005 23.9966C21.0317 24.3927 22.2205 25.2878 23 26.4625V22.8163L21.9161 22.6172C19.0681 22.0941 17 19.6116 17 16.716V7H19V16.3673L19.0839 16.3828C20.7351 16.686 22.1242 17.648 23 18.9672V16.9998L22.5358 16.5355C20.5831 14.5829 20.5831 11.4171 22.5358 9.46447L23 9.00022V4H25V8.99978L25.4647 9.46447C27.4173 11.4171 27.4173 14.5829 25.4647 16.5355L25 17.0002Z" fill="black"/>
</svg>

<svg
  xmlns="http://www.w3.org/2000/svg"
  width="24"
  height="24"
  viewBox="0 0 24 24"
  fill="none"
  stroke="currentColor"
  stroke-width="2"
  stroke-linecap="round"
  stroke-linejoin="round"
>
  <path d="M25 17v1.967a6 6 0 0 1 3.916-2.584l.084-.016V7h2v10h-.007a6 6 0 0 1-4.91 5.617l-1.083.2v3.645a6 6 0 0 1 3.4-2.465L32 23v1.22a6 6 0 0 1-4.4 5.783l-2.6.72v3.74a6 6 0 0 1 3.4-2.466L32 31v1.22a6 6 0 0 1-4.4 5.783l-2.6.72V44h-2v-5.277l-2.6-.72a6 6 0 0 1-4.4-5.782V31l3.6.997a6 6 0 0 1 3.4 2.465v-3.739l-2.6-.72a6 6 0 0 1-4.4-5.782V23l3.6.997a6 6 0 0 1 3.4 2.465v-3.646l-1.084-.199A6 6 0 0 1 17 16.716V7h2v9.367l.084.016A6 6 0 0 1 23 18.967V17l-.464-.465a5 5 0 0 1 0-7.07L23 9V4h2v5l.465.464a5 5 0 0 1 0 7.071z" />
</svg>
